packages/components/Atoms/Icon/assets/img/rpl_icon_alert_fire.svg

<svg width="20" height="20" viewBox="0 0 20 20" overflow="visible" xmlns="http://www.w3.org/2000/svg">
  <path d="M20 9.768C20 4.382 15.514 0 10 0C4.487 0 0 4.382 0 9.768C0 13.827 2.55 17.314 6.166 18.786C5.564 18.166 5.109 17.244 5.109 15.838C5.109 13.82 5.919 12.414 6.634 11.174C7.256 10.094 7.845 9.073 7.845 7.764C7.845 6.97 6.998 6.053 6.672 5.767C6.60453 5.70832 6.55674 5.63032 6.53509 5.54356C6.51345 5.45681 6.519 5.36549 6.551 5.282C6.58406 5.19769 6.64167 5.12526 6.71638 5.07409C6.79109 5.02292 6.87945 4.99536 6.97 4.995H7.005C8.108 4.995 10.305 5.577 10.977 7.803C11.171 8.439 11.153 9.283 11.135 10.097C11.115 10.942 11.092 11.995 11.391 12.293C11.431 12.333 11.488 12.373 11.621 12.373C11.708 12.373 11.918 12.191 12.116 11.706C12.574 10.579 12.541 9.034 12.181 8.704C12.1056 8.63479 12.057 8.54133 12.0434 8.43991C12.0299 8.33849 12.0524 8.23554 12.107 8.149C12.1634 8.06178 12.2477 7.99623 12.3461 7.963C12.4445 7.92977 12.5513 7.93083 12.649 7.966C12.769 8.01 15.586 9.073 15.389 13.556C15.272 16.226 14.268 18.069 12.979 19.093C17.041 17.853 20 14.14 20 9.768Z"
    fill="inherit" />
</svg>

<svg width="20" height="20" overflow="visible" xmlns="http://www.w3.org/2000/svg"><path d="M20 9.768C20 4.382 15.514 0 10 0 4.487 0 0 4.382 0 9.768c0 4.059 2.55 7.546 6.166 9.018-.602-.62-1.057-1.542-1.057-2.948 0-2.018.81-3.424 1.525-4.664.622-1.08 1.211-2.101 1.211-3.41 0-.794-.847-1.711-1.173-1.997a.436.436 0 01.044-.693.452.452 0 01.254-.079h.035c1.103 0 3.3.582 3.972 2.808.194.636.176 1.48.158 2.294-.02.845-.043 1.898.256 2.196.04.04.097.08.23.08.087 0 .297-.182.495-.667.458-1.127.425-2.672.065-3.002a.437.437 0 01.165-.741.46.46 0 01.303.003c.12.044 2.937 1.107 2.74 5.59-.117 2.67-1.121 4.513-2.41 5.537C17.041 17.853 20 14.14 20 9.768z" fill="inherit"/></svg>
